packages/icons/svg/24/DeviceRotation.svg

<svg width="24" height="24" viewBox="0 0 24 24" fill="none" xmlns="http://www.w3.org/2000/svg">
<path fill-rule="evenodd" clip-rule="evenodd" d="M5 6.99976C3.89543 6.99976 3 7.89519 3 8.99976V19.9998C3 21.1043 3.89543 21.9998 5 21.9998H10C11.1046 21.9998 12 21.1043 12 19.9998V8.99976C12 7.89519 11.1046 6.99976 10 6.99976H5ZM7.5 20.4998C8.05228 20.4998 8.5 20.052 8.5 19.4998C8.5 18.9475 8.05228 18.4998 7.5 18.4998C6.94772 18.4998 6.5 18.9475 6.5 19.4998C6.5 20.052 6.94772 20.4998 7.5 20.4998Z" fill="#858585"/>
<path d="M13.4649 22H19C20.1046 22 21 21.1046 21 20V15C21 13.8954 20.1046 13 19 13H14V20C14 20.7286 13.8052 21.4117 13.4649 22Z" fill="#858585"/>
<path fill-rule="evenodd" clip-rule="evenodd" d="M15.0693 5.07982C14.3642 5.00148 13.3994 5 12 5C11.4477 5 11 4.55229 11 4C11 3.44772 11.4477 3 12 3C12.0208 3 12.0416 3 12.0623 3C13.3844 2.99998 14.4613 2.99996 15.2901 3.09206C16.1246 3.18477 16.928 3.38882 17.5196 3.98039C18.1112 4.57197 18.3152 5.37542 18.4079 6.20988C18.4384 6.48396 18.4588 6.78515 18.4724 7.11337L18.7929 6.79289C19.1834 6.40237 19.8166 6.40237 20.2071 6.79289C20.5976 7.18342 20.5976 7.81658 20.2071 8.20711L18.2071 10.2071C17.8166 10.5976 17.1834 10.5976 16.7929 10.2071L14.7929 8.20711C14.4024 7.81658 14.4024 7.18342 14.7929 6.79289C15.1834 6.40237 15.8166 6.40237 16.2071 6.79289L16.4679 7.05368C16.4565 6.82534 16.4411 6.6188 16.4202 6.43075C16.341 5.71834 16.2013 5.49053 16.1054 5.39461C16.0095 5.29868 15.7817 5.15898 15.0693 5.07982Z" fill="#858585"/>
</svg>

<svg width="24" height="24" fill="none" xmlns="http://www.w3.org/2000/svg" viewBox="0 0 24 24"><path fill-rule="evenodd" clip-rule="evenodd" d="M5 7a2 2 0 00-2 2v11a2 2 0 002 2h5a2 2 0 002-2V9a2 2 0 00-2-2H5zm2.5 13.5a1 1 0 100-2 1 1 0 000 2z" fill="currentColor"></path><path d="M13.465 22H19a2 2 0 002-2v-5a2 2 0 00-2-2h-5v7c0 .729-.195 1.412-.535 2z" fill="currentColor"></path><path fill-rule="evenodd" clip-rule="evenodd" d="M15.07 5.08C14.363 5 13.4 5 12 5a1 1 0 110-2h.062c1.322 0 2.4 0 3.228.092.835.093 1.638.297 2.23.888.591.592.795 1.395.888 2.23.03.274.05.575.064.903l.32-.32a1 1 0 111.415 1.414l-2 2a1 1 0 01-1.414 0l-2-2a1 1 0 011.414-1.414l.26.26a10.347 10.347 0 00-.047-.622c-.079-.713-.219-.94-.315-1.036-.096-.096-.323-.236-1.036-.315z" fill="currentColor"></path></svg>
